src/assets/filled/Folder.svg

<?xml version="1.0" encoding="UTF-8"?>
<svg width="24" height="24" viewBox="0 0 24 24" xmlns="http://www.w3.org/2000/svg">
 <path d="m21.017 7.9918c0.3979 0.56658-0.0764 1.2582-0.7687 1.2582h-17.248c-0.55228 0-1-0.44772-1-1v-1.83c0-2.44 1.98-4.42 4.42-4.42h2.32c1.63 0 2.14 0.53 2.79 1.4l1.4 1.86c0.31 0.41 0.35 0.46 0.93 0.46h2.79c1.8046 0 3.4016 0.89709 4.3669 2.2718z"/>
 <path d="m20.983 10.75c0.5509 0 0.9981 0.4456 1 0.9966l0.0166 4.9036c0 2.95-2.4 5.35-5.35 5.35h-9.3c-2.95 0-5.35-2.4-5.35-5.35v-4.9c0-0.5523 0.44771-1 0.99999-1l17.983-2e-4z"/>
</svg>

<svg width="24" height="24" viewBox="0 0 24 24"  xmlns="http://www.w3.org/2000/svg">
<path d="M21.0169 7.99175C21.4148 8.55833 20.9405 9.25 20.2482 9.25H3C2.44772 9.25 2 8.80228 2 8.25V6.42C2 3.98 3.98 2 6.42 2H8.74C10.37 2 10.88 2.53 11.53 3.4L12.93 5.26C13.24 5.67 13.28 5.72 13.86 5.72H16.65C18.4546 5.72 20.0516 6.61709 21.0169 7.99175Z" />
<path d="M20.9834 10.7498C21.5343 10.7498 21.9815 11.1954 21.9834 11.7464L22 16.65C22 19.6 19.6 22 16.65 22H7.35C4.4 22 2 19.6 2 16.65V11.75C2 11.1977 2.44771 10.75 2.99999 10.75L20.9834 10.7498Z" />
</svg>
